src/lib/packages/icons/src/assets/filled/inbox.svg

<svg width="24" height="24" viewBox="0 0 24 24" fill="none" xmlns="http://www.w3.org/2000/svg">
<path d="M21.5581 12.301L19.396 5.814C18.869 4.232 17.568 3.25 16 3.25H8C6.433 3.25 5.132 4.232 4.604 5.814L2.44312 12.3C2.31512 12.682 2.25 13.082 2.25 13.487V18C2.25 20.418 3.582 21.75 6 21.75H18C20.418 21.75 21.75 20.418 21.75 18V13.487C21.75 13.082 21.6851 12.682 21.5581 12.301ZM6.02808 6.28799C6.34808 5.32499 7.086 4.75 8 4.75H16C16.914 4.75 17.6509 5.32499 17.9719 6.28799L20.043 12.5H17.0449C15.8849 12.5 14.8059 13.159 14.1589 14.263C13.7129 15.026 12.886 15.5 12 15.5C11.114 15.5 10.2871 15.026 9.84106 14.263C9.19506 13.159 8.11508 12.5 6.95508 12.5H3.95801L6.02808 6.28799ZM7.25 10C7.25 9.586 7.586 9.25 8 9.25H16C16.414 9.25 16.75 9.586 16.75 10C16.75 10.414 16.414 10.75 16 10.75H8C7.586 10.75 7.25 10.414 7.25 10ZM8.25 7C8.25 6.586 8.586 6.25 9 6.25H15C15.414 6.25 15.75 6.586 15.75 7C15.75 7.414 15.414 7.75 15 7.75H9C8.586 7.75 8.25 7.414 8.25 7Z" fill="currentColor"/>
</svg>

<svg xmlns="http://www.w3.org/2000/svg" width="24" height="24" fill="none"><path fill="currentColor" d="m21.558 12.301-2.162-6.487C18.869 4.232 17.568 3.25 16 3.25H8c-1.567 0-2.868.982-3.396 2.564L2.444 12.3a3.732 3.732 0 0 0-.194 1.187V18c0 2.418 1.332 3.75 3.75 3.75h12c2.418 0 3.75-1.332 3.75-3.75v-4.513c0-.405-.065-.805-.192-1.186ZM6.028 6.288C6.348 5.325 7.086 4.75 8 4.75h8c.914 0 1.65.575 1.972 1.538l2.071 6.212h-2.998c-1.16 0-2.24.659-2.886 1.763A2.508 2.508 0 0 1 12 15.5a2.508 2.508 0 0 1-2.159-1.237C9.195 13.159 8.115 12.5 6.955 12.5H3.958l2.07-6.212ZM7.25 10A.75.75 0 0 1 8 9.25h8a.75.75 0 0 1 0 1.5H8a.75.75 0 0 1-.75-.75Zm1-3A.75.75 0 0 1 9 6.25h6a.75.75 0 0 1 0 1.5H9A.75.75 0 0 1 8.25 7Z"/></svg>
